symbolic/22x22/actions/distribute-vertical-y.svg

<svg xmlns="http://www.w3.org/2000/svg" width="22" height="22"><defs><style id="current-color-scheme" type="text/css"></style></defs><path style="fill:currentColor;color:#323a41" d="M3 1v4h10V1zm3 5v1h1v2H6v1h4V9H9V7h1V6zm-3 5v4h10v-4z" transform="translate(3 3)"/></svg>

<svg xmlns="http://www.w3.org/2000/svg" width="22" height="22" version="1.1">
 <defs>
  <style id="current-color-scheme" type="text/css">
   .ColorScheme-Text { color:#323a41; } .ColorScheme-Highlight { color:#4285f4; } .ColorScheme-NeutralText { color:#ff9800; } .ColorScheme-PositiveText { color:#4caf50; } .ColorScheme-NegativeText { color:#f44336; }
  </style>
 </defs>
 <g transform="translate(3,3)">
  <path style="fill:currentColor" class="ColorScheme-Text" d="M 3,1 V 5 H 13 V 1 Z M 6,6 V 7 H 7 V 9 H 6 V 10 H 10 V 9 H 9 V 7 H 10 V 6 Z M 3,11 V 15 H 13 V 11 Z"/>
 </g>
</svg>
